X:1
T:Title
%%score 1 { 2 | 3 }
L:1/8
Q:1/4=90
M:3/4
K:Eb
V:1 treble nm="Drawbar Organ, Soprano"
V:2 bass nm="Church Organ, Hayward, 87.87 D"
V:3 bass 
V:1
 [EB]>[EB] [EB]3 [EG] | [B,E]>[B,F] [B,E]2 [B,D]2 | [DA]>[DA] [DA]3 [B,D] | [B,E]>[DF] [EG]4 | %4
w: By~Peter~Philip~Bilhorn,~1896 * * *||||
 [GB]>[GB] [Ge]3 [GB] | [EG]>E [EA]2 [Ec]2 | [EB]>[Ec] [EB]3 [FA] | [EG]>[DF] E4 | B>B [AB]3 [AB] | %9
w: |||||
 [Ac]>[Ad] [Ge]2 [GB]2 | [GB]>[GB] [AB]3 [AB] | [Ad]>[Ac] [GB]4 | [GB]>[GB] [Ge]3 [GB] | %13
w: ||||
 [EG]>E [EA]2 [Ec]2 | [EB]>[Ec] [EB]3 [FA] | [EG]>[DF] E4- | E4 z2 |] %17
w: ||||
V:2
 G,>G, G,3 B, | G,>A, G,2 A,2 | F,>F, F,3 A, | G,>B, B,4 | B,>B, B,3 E | B,>B, A,2 A,2 | %6
 G,>_G, =G,3 B, | B,>A, G,4 | B,>B,[K:treble] D3 D | D>B, B,2 E2 | E>E D3 D | F>D E4 | %12
 E>E[K:bass] B,3 E | B,>B, A,2 A,2 | G,>_G, =G,3 B, | B,>A, G,4- | G,4 z2 |] %17
V:3
 E,>E, E,3 E, | E,>E, B,,2 B,,2 | B,,>B,, B,,3 B,, | B,,>B,, E,4 | E,>E, E,3 E, | E,>_D, C,2 A,,2 | %6
 B,,>B,, B,,3 B,, | B,,>B,, E,4 | z2 B,,3 B,, | B,,>B,, E,2 E,2 | E,>E, F,3 F, | B,,>B,, E,4 | %12
 E,>E, E,3 E, | E,>_D, C,2 A,,2 | B,,>B,, B,,3 B,, | B,,>B,, E,4- | E,4 z2 |] %17

